alura/assets/api/cursos/onboarding-banrisul-alunos.svg

<svg width="193" height="39" viewBox="0 0 193 39" fill="none" xmlns="http://www.w3.org/2000/svg">
<g clip-path="url(#clip0_1482_2)">
<path d="M49.4697 5.67993H51.4404C51.544 5.68012 51.62 5.75605 51.6201 5.85962V16.7991L52.4932 15.8235C54.0021 14.136 56.1315 13.1299 58.5234 13.0295H58.9199C64.0596 13.0295 67.9404 17.0118 67.9404 22.3401C67.9404 27.6683 64.0595 31.6497 58.9199 31.6497C56.3675 31.6496 54.085 30.627 52.4932 28.8469L51.6201 27.8704V31.05C51.6201 31.1485 51.5393 31.2295 51.4404 31.2297H49.4697C49.3661 31.2296 49.2901 31.1537 49.29 31.05V5.85962C49.2902 5.76121 49.3709 5.6801 49.4697 5.67993ZM58.5801 15.3C54.6189 15.3 51.6201 18.3393 51.6201 22.3303C51.6203 26.3212 54.619 29.3596 58.5801 29.3596C62.5411 29.3596 65.5398 26.3212 65.54 22.3303C65.54 18.3393 62.5413 15.3001 58.5801 15.3Z" fill="white" stroke="#000050"/>
<path d="M82.2903 13.01C84.8428 13.0101 87.1252 14.0335 88.717 15.8137L89.5901 16.7893V13.6096C89.5903 13.5112 89.6709 13.4301 89.7698 13.4299H91.7405C91.844 13.4301 91.92 13.5061 91.9202 13.6096V31.0295C91.9202 31.1281 91.8394 31.21 91.7405 31.2102H89.7698C89.6661 31.2101 89.5901 31.1333 89.5901 31.0295V27.8508L88.717 28.8264C87.1252 30.6067 84.8428 31.6301 82.2903 31.6301C77.172 31.6301 73.3 27.6493 73.3 22.3196C73.3003 16.9901 77.1721 13.01 82.2903 13.01ZM82.6301 15.3C78.6764 15.3 75.7004 18.3418 75.7004 22.3303C75.7006 26.3192 78.687 29.3596 82.6301 29.3596C86.5912 29.3596 89.5899 26.3212 89.5901 22.3303C89.5901 18.3388 86.5808 15.3001 82.6301 15.3Z" fill="white" stroke="#000050"/>
<path d="M108.37 13.02C110.635 13.02 112.492 13.782 113.781 15.0737C115.07 16.3655 115.83 18.2246 115.83 20.4897V31.0503C115.83 31.1488 115.749 31.2299 115.65 31.23H113.68C113.577 31.23 113.5 31.154 113.5 31.0503V21.0698C113.5 19.3786 113.003 17.9277 112.009 16.897C111.012 15.8634 109.57 15.3101 107.8 15.3101C106.029 15.3101 104.526 15.8678 103.463 16.9019C102.398 17.9374 101.82 19.4065 101.82 21.1401V31.0503C101.82 31.1487 101.739 31.2298 101.64 31.23H99.6697C99.5661 31.2298 99.4901 31.1539 99.49 31.0503V13.6099C99.4901 13.5114 99.5708 13.4303 99.6697 13.4302H101.64C101.744 13.4304 101.82 13.5062 101.82 13.6099V16.0591L102.676 15.1909C104.058 13.7903 106.002 13.02 108.37 13.02Z" fill="white" stroke="#000050"/>
<path d="M123.38 13.4299H125.35C125.454 13.4301 125.53 13.5061 125.53 13.6096V16.7209L126.396 15.7903C127.766 14.3187 129.67 13.5003 131.88 13.5002H131.891V13.51H132.391C132.494 13.5102 132.57 13.5861 132.57 13.6897V15.7395C132.57 15.838 132.489 15.9199 132.391 15.9202H131.88C129.967 15.9202 128.366 16.5296 127.244 17.677C126.123 18.8232 125.53 20.4535 125.53 22.3997V31.05C125.53 31.1485 125.449 31.2295 125.35 31.2297H123.38C123.276 31.2296 123.2 31.1537 123.2 31.05V13.6096C123.2 13.5357 123.246 13.472 123.31 13.4446L123.38 13.4299Z" fill="white" stroke="#000050"/>
<path d="M138.38 13.4299H140.35C140.454 13.4301 140.53 13.506 140.53 13.6096V31.05C140.53 31.149 140.449 31.2295 140.35 31.2297H138.38C138.276 31.2296 138.2 31.1537 138.2 31.05V13.6096C138.2 13.5355 138.246 13.472 138.31 13.4446L138.38 13.4299Z" fill="white" stroke="#000050"/>
<path d="M139.36 6.48999C140.298 6.49016 141 7.18004 141 8.07983C141 8.98594 140.272 9.69977 139.36 9.69995C138.464 9.69995 137.75 8.96141 137.75 8.07983C137.75 7.21068 138.472 6.48999 139.36 6.48999Z" fill="white" stroke="#000050"/>
<path d="M153.911 13.01C156.357 13.0101 158.567 13.9037 160.157 15.4934C160.223 15.5598 160.226 15.6669 160.175 15.7327L160.172 15.7366L159.052 17.2073L159.05 17.2102C159.009 17.265 158.958 17.2795 158.94 17.2795H158.927L158.915 17.2805C158.87 17.2828 158.82 17.2665 158.776 17.219H158.775C157.593 15.9299 155.897 15.2006 153.951 15.2004C152.988 15.2004 151.981 15.3833 151.197 15.804C150.4 16.231 149.78 16.94 149.78 17.9602C149.78 18.4509 149.919 18.8808 150.188 19.2493C150.45 19.6091 150.818 19.885 151.24 20.1096C152.069 20.5513 153.226 20.8543 154.534 21.1663L155.15 21.3127C156.387 21.6284 157.688 22.0099 158.735 22.6692C159.922 23.4169 160.76 24.5033 160.76 26.2903C160.76 27.8836 160.085 29.202 158.899 30.134C157.702 31.0739 155.957 31.6399 153.81 31.6399C151.075 31.6399 148.543 30.5978 146.846 28.8186C146.78 28.7449 146.778 28.6392 146.834 28.5667L147.949 27.135C147.996 27.0775 148.049 27.0598 148.08 27.0598C148.155 27.0599 148.209 27.0915 148.232 27.1174L148.236 27.1213C149.573 28.6327 151.547 29.4503 153.78 29.4504C155.035 29.4504 156.152 29.2084 156.974 28.7249C157.809 28.2331 158.36 27.4714 158.36 26.4905C158.36 26.007 158.223 25.5828 157.958 25.219C157.7 24.8636 157.338 24.5903 156.924 24.3674C156.112 23.9299 154.979 23.6272 153.703 23.3157H153.704C152.191 22.9259 150.597 22.5123 149.373 21.7297C148.189 20.9725 147.371 19.8828 147.37 18.0803C147.37 16.6009 148.017 15.3498 149.144 14.4573C150.279 13.5585 151.924 13.01 153.911 13.01Z" fill="white" stroke="#000050"/>
<path d="M167.05 13.4299H169.02C169.124 13.4301 169.2 13.506 169.2 13.6096V23.8997C169.2 25.5176 169.738 26.894 170.724 27.8655C171.711 28.836 173.102 29.3596 174.73 29.3596C176.359 29.3595 177.744 28.8355 178.723 27.8635C179.702 26.8912 180.23 25.5154 180.23 23.8997V13.6096C180.23 13.5359 180.275 13.4721 180.34 13.4446L180.41 13.4299H182.39C182.493 13.4299 182.57 13.5059 182.57 13.6096V24.1702C182.57 26.4349 181.784 28.2919 180.437 29.5833C179.089 30.8761 177.137 31.6399 174.74 31.6399C172.343 31.6399 170.381 30.8737 169.021 29.5784C167.664 28.2849 166.87 26.4278 166.87 24.1702V13.6096C166.87 13.5357 166.916 13.472 166.98 13.4446L167.05 13.4299Z" fill="white" stroke="#000050"/>
<path d="M192.11 5.66992C192.214 5.67012 192.29 5.74604 192.29 5.84961V31.0498C192.29 31.1488 192.209 31.2293 192.11 31.2295H190.14C190.036 31.2293 189.96 31.1536 189.96 31.0498V5.86035C189.96 5.76136 190.041 5.67985 190.14 5.67969H190.64V5.66992H192.11Z" fill="white" stroke="#000050"/>
<path d="M31.63 9.80991L27.1 1.91991C26.65 1.13991 25.82 0.659912 24.92 0.659912H15.86C14.96 0.659912 14.13 1.13991 13.68 1.91991L9.15 9.80991C8.7 10.5899 8.7 11.5499 9.15 12.3299L13.68 20.2199C14.13 20.9999 14.96 21.4799 15.86 21.4799H19.15L20.39 19.3199H15.86C15.73 19.3199 15.61 19.2499 15.55 19.1399L11.02 11.2499C10.96 11.1399 10.96 10.9999 11.02 10.8899L15.55 2.99991C15.61 2.88991 15.73 2.81991 15.86 2.81991H24.92C25.05 2.81991 25.17 2.88991 25.23 2.99991L29.76 10.8899C29.82 10.9999 29.82 11.1399 29.76 11.2499L27.13 15.8399H29.62L31.63 12.3399C32.08 11.5599 32.08 10.5999 31.63 9.81991V9.80991Z" fill="#0095FF"/>
<path d="M23.65 24.9899L21.64 21.4899H19.15L21.78 26.0799C21.84 26.1899 21.84 26.3299 21.78 26.4399L17.25 34.3299C17.19 34.4399 17.07 34.5099 16.94 34.5099H7.89003C7.76003 34.5099 7.64003 34.4399 7.58003 34.3299L3.05003 26.4399C2.99003 26.3299 2.99003 26.1899 3.05003 26.0799L7.58003 18.1899C7.64003 18.0799 7.76003 18.0099 7.89003 18.0099H12.42L11.18 15.8499H7.89003C6.99003 15.8499 6.16003 16.3299 5.71003 17.1099L1.18003 24.9999C0.730029 25.7799 0.730029 26.7399 1.18003 27.5199L5.71003 35.4099C6.16003 36.1899 6.99003 36.6699 7.89003 36.6699H16.95C17.85 36.6699 18.68 36.1899 19.13 35.4099L23.66 27.5199C24.11 26.7399 24.11 25.7799 23.66 24.9999L23.65 24.9899Z" fill="#A070FE"/>
<path d="M39.61 24.9898L35.08 17.0998C34.63 16.3198 33.8 15.8398 32.9 15.8398H23.84C22.94 15.8398 22.11 16.3198 21.66 17.0998L19.14 21.4798H21.63L23.53 18.1798C23.59 18.0698 23.71 17.9998 23.84 17.9998H32.9C33.03 17.9998 33.15 18.0698 33.21 18.1798L37.74 26.0698C37.8 26.1798 37.8 26.3198 37.74 26.4298L33.21 34.3198C33.15 34.4298 33.03 34.4998 32.9 34.4998H23.84C23.71 34.4998 23.59 34.4298 23.53 34.3198L21.63 31.0298L20.39 33.1898L21.67 35.3998C22.12 36.1798 22.95 36.6598 23.85 36.6598H32.91C33.81 36.6598 34.64 36.1798 35.09 35.3998L39.62 27.5098C40.07 26.7298 40.07 25.7698 39.62 24.9898H39.61Z" fill="#00CFCB"/>
</g>
<defs>
<clipPath id="clip0_1482_2">
<rect width="192.96" height="39" fill="white"/>
</clipPath>
</defs>
</svg>

<svg xmlns="http://www.w3.org/2000/svg" fill="none" viewBox="0 0 193 39"><g clip-path="url(#clip0_1482_2)"><path fill="#fff" stroke="#000050" d="M49.47 5.68h1.97c.104 0 .18.076.18.18V16.8l.873-.977c1.51-1.687 3.639-2.693 6.03-2.793h.397c5.14 0 9.02 3.982 9.02 9.31s-3.88 9.31-9.02 9.31c-2.553 0-4.835-1.023-6.427-2.803l-.873-.977v3.18a.18.18 0 01-.18.18h-1.97a.174.174 0 01-.18-.18V5.86c0-.099.08-.18.18-.18zm9.11 9.62c-3.961 0-6.96 3.04-6.96 7.03 0 3.991 2.999 7.03 6.96 7.03s6.96-3.039 6.96-7.03c0-3.99-2.999-7.03-6.96-7.03zm23.71-2.29c2.553 0 4.835 1.024 6.427 2.804l.873.975v-3.18c0-.098.08-.179.18-.18h1.97c.104.001.18.077.18.18v17.42c0 .1-.08.181-.18.181h-1.97a.175.175 0 01-.18-.18v-3.18l-.873.976c-1.592 1.78-3.874 2.804-6.427 2.804-5.118 0-8.99-3.98-8.99-9.31s3.872-9.31 8.99-9.31zm.34 2.29c-3.954 0-6.93 3.042-6.93 7.03 0 3.99 2.987 7.03 6.93 7.03 3.961 0 6.96-3.039 6.96-7.03s-3.01-7.03-6.96-7.03zm25.74-2.28c2.265 0 4.122.762 5.411 2.054 1.289 1.292 2.049 3.15 2.049 5.416v10.56a.18.18 0 01-.18.18h-1.97a.175.175 0 01-.18-.18v-9.98c0-1.691-.497-3.142-1.491-4.173-.997-1.034-2.439-1.587-4.209-1.587-1.771 0-3.274.558-4.337 1.592-1.065 1.035-1.643 2.505-1.643 4.238v9.91a.18.18 0 01-.18.18h-1.97a.175.175 0 01-.18-.18V13.61c0-.099.08-.18.18-.18h1.97c.104 0 .18.076.18.18v2.45l.856-.87c1.382-1.4 3.326-2.17 5.694-2.17zm15.01.41h1.97c.104 0 .18.076.18.18v3.11l.866-.93c1.37-1.471 3.274-2.29 5.484-2.29h.011v.01h.5c.103 0 .179.076.179.18v2.05c0 .098-.081.18-.179.18h-.511c-1.913 0-3.514.61-4.636 1.757-1.121 1.146-1.714 2.776-1.714 4.723v8.65a.18.18 0 01-.18.18h-1.97a.174.174 0 01-.18-.18V13.61a.18.18 0 01.11-.165l.07-.015zm15 0h1.97c.104 0 .18.076.18.18v17.44a.18.18 0 01-.18.18h-1.97a.174.174 0 01-.18-.18V13.61a.18.18 0 01.11-.165l.07-.015zm.98-6.94c.938 0 1.64.69 1.64 1.59a1.62 1.62 0 01-1.64 1.62 1.62 1.62 0 01-1.61-1.62c0-.87.722-1.59 1.61-1.59zm14.551 6.52c2.446 0 4.656.894 6.246 2.483a.186.186 0 01.018.24l-.003.004-1.12 1.47-.002.003c-.041.055-.092.07-.11.07h-.025a.175.175 0 01-.139-.061h-.001c-1.182-1.29-2.878-2.018-4.824-2.019-.963 0-1.97.183-2.754.604-.797.427-1.417 1.136-1.417 2.156 0 .49.139.92.408 1.29.262.36.63.635 1.052.86.829.441 1.986.744 3.294 1.056l.616.147c1.237.315 2.538.697 3.585 1.356 1.187.748 2.025 1.834 2.025 3.621 0 1.594-.675 2.912-1.861 3.844-1.197.94-2.942 1.506-5.089 1.506-2.735 0-5.267-1.042-6.964-2.821a.197.197 0 01-.012-.252l1.115-1.432c.047-.058.1-.075.131-.075.075 0 .129.032.152.057l.004.004c1.337 1.512 3.311 2.33 5.544 2.33 1.255 0 2.372-.243 3.194-.726.835-.492 1.386-1.254 1.386-2.235 0-.483-.137-.907-.402-1.271-.258-.355-.62-.629-1.034-.852-.812-.437-1.945-.74-3.221-1.051h.001c-1.513-.39-3.107-.804-4.331-1.586-1.184-.758-2.002-1.847-2.003-3.65 0-1.48.647-2.73 1.774-3.623 1.135-.899 2.78-1.447 4.767-1.447zm13.139.42h1.97c.104 0 .18.076.18.18V23.9c0 1.618.538 2.994 1.524 3.966.987.97 2.378 1.494 4.006 1.494 1.629 0 3.014-.524 3.993-1.497.979-.972 1.507-2.348 1.507-3.963V13.61a.18.18 0 01.11-.165l.07-.015h1.98c.103 0 .18.076.18.18v10.56c0 2.265-.786 4.122-2.133 5.413-1.348 1.293-3.3 2.057-5.697 2.057-2.397 0-4.359-.766-5.719-2.062-1.357-1.293-2.151-3.15-2.151-5.408V13.61a.18.18 0 01.11-.165l.07-.015zm25.06-7.76c.104 0 .18.076.18.18v25.2a.18.18 0 01-.18.18h-1.97a.174.174 0 01-.18-.18V5.86a.18.18 0 01.18-.18h.5v-.01h1.47z"/><path fill="#0095FF" d="M31.63 9.81L27.1 1.92A2.516 2.516 0 0024.92.66h-9.06c-.9 0-1.73.48-2.18 1.26L9.15 9.81a2.52 2.52 0 000 2.52l4.53 7.89c.45.78 1.28 1.26 2.18 1.26h3.29l1.24-2.16h-4.53c-.13 0-.25-.07-.31-.18l-4.53-7.89a.383.383 0 010-.36L15.55 3c.06-.11.18-.18.31-.18h9.06c.13 0 .25.07.31.18l4.53 7.89c.06.11.06.25 0 .36l-2.63 4.59h2.49l2.01-3.5c.45-.78.45-1.74 0-2.52v-.01z"/><path fill="#A070FE" d="M23.65 24.99l-2.01-3.5h-2.49l2.63 4.59c.06.11.06.25 0 .36l-4.53 7.89c-.06.11-.18.18-.31.18H7.89c-.13 0-.25-.07-.31-.18l-4.53-7.89a.383.383 0 010-.36l4.53-7.89c.06-.11.18-.18.31-.18h4.53l-1.24-2.16H7.89c-.9 0-1.73.48-2.18 1.26L1.18 25a2.52 2.52 0 000 2.52l4.53 7.89c.45.78 1.28 1.26 2.18 1.26h9.06c.9 0 1.73-.48 2.18-1.26l4.53-7.89c.45-.78.45-1.74 0-2.52l-.01-.01z"/><path fill="#00CFCB" d="M39.61 24.99l-4.53-7.89a2.516 2.516 0 00-2.18-1.26h-9.06c-.9 0-1.73.48-2.18 1.26l-2.52 4.38h2.49l1.9-3.3c.06-.11.18-.18.31-.18h9.06c.13 0 .25.07.31.18l4.53 7.89c.06.11.06.25 0 .36l-4.53 7.89c-.06.11-.18.18-.31.18h-9.06c-.13 0-.25-.07-.31-.18l-1.9-3.29-1.24 2.16 1.28 2.21c.45.78 1.28 1.26 2.18 1.26h9.06c.9 0 1.73-.48 2.18-1.26l4.53-7.89c.45-.78.45-1.74 0-2.52h-.01z"/></g><defs><clipPath id="clip0_1482_2"><path fill="#fff" d="M0 0h192.96v39H0z"/></clipPath></defs></svg>
